src/assets/valid.svg

<svg width="25" height="24" viewBox="0 0 25 24" fill="none" xmlns="http://www.w3.org/2000/svg">
<path d="M12.5 1.5C6.70156 1.5 2 6.20156 2 12C2 17.7984 6.70156 22.5 12.5 22.5C18.2984 22.5 23 17.7984 23 12C23 6.20156 18.2984 1.5 12.5 1.5ZM17.0352 8.57109L12.0992 15.4148C12.0302 15.5111 11.9393 15.5896 11.8339 15.6437C11.7286 15.6978 11.6118 15.7261 11.4934 15.7261C11.3749 15.7261 11.2582 15.6978 11.1528 15.6437C11.0474 15.5896 10.9565 15.5111 10.8875 15.4148L7.96484 11.3648C7.87578 11.2406 7.96484 11.0672 8.11719 11.0672H9.21641C9.45547 11.0672 9.68281 11.182 9.82344 11.3789L11.4922 13.6945L15.1766 8.58516C15.3172 8.39062 15.5422 8.27344 15.7836 8.27344H16.8828C17.0352 8.27344 17.1242 8.44688 17.0352 8.57109Z" fill="#E75950"/>
</svg>

<svg xmlns="http://www.w3.org/2000/svg" width="25" height="24" fill="none" xmlns:v="https://vecta.io/nano"><path d="M12.5 1.5C6.702 1.5 2 6.202 2 12s4.702 10.5 10.5 10.5S23 17.798 23 12 18.298 1.5 12.5 1.5zm4.535 7.071l-4.936 6.844c-.069.096-.16.175-.265.229s-.222.082-.341.082-.235-.028-.341-.082-.196-.133-.265-.229l-2.923-4.05c-.089-.124 0-.298.152-.298h1.099c.239 0 .466.115.607.312l1.669 2.316 3.684-5.109a.75.75 0 0 1 .607-.312h1.099c.152 0 .241.173.152.298z" fill="#e75950"/></svg>
